static/assets/img/icons/theme/general/clipboard.svg

<svg height="24" viewBox="0 0 24 24" width="24" xmlns="http://www.w3.org/2000/svg"><g fill="none" fill-rule="evenodd"><path d="m0 0h24v24h-24z" opacity="0"/><g fill="#000"><path d="m8 3v.5c0 .82842712.67157288 1.5 1.5 1.5h5c.8284271 0 1.5-.67157288 1.5-1.5v-.5h2c1.1045695 0 2 .8954305 2 2v16c0 1.1045695-.8954305 2-2 2h-12c-1.1045695 0-2-.8954305-2-2v-16c0-1.1045695.8954305-2 2-2z" opacity=".3"/><path d="m11 2c0-.55228475.4477153-1 1-1s1 .44771525 1 1h1.5c.2761424 0 .5.22385763.5.5v1c0 .27614237-.2238576.5-.5.5h-5c-.27614237 0-.5-.22385763-.5-.5v-1c0-.27614237.22385763-.5.5-.5z"/><rect height="2" opacity=".3" rx="1" width="5" x="7" y="10"/><rect height="2" opacity=".3" rx="1" width="9" x="7" y="14"/></g></g></svg>

<svg width="24px" height="24px" viewBox="0 0 24 24" version="1.1" xmlns="http://www.w3.org/2000/svg" xmlns:xlink="http://www.w3.org/1999/xlink">
    <title>Icon For Clipboard</title>
    <g stroke="none" stroke-width="1" fill="none" fill-rule="evenodd">
        <rect opacity="0" x="0" y="0" width="24" height="24"></rect>
        <path d="M8,3 L8,3.5 C8,4.32842712 8.67157288,5 9.5,5 L14.5,5 C15.3284271,5 16,4.32842712 16,3.5 L16,3 L18,3 C19.1045695,3 20,3.8954305 20,5 L20,21 C20,22.1045695 19.1045695,23 18,23 L6,23 C4.8954305,23 4,22.1045695 4,21 L4,5 C4,3.8954305 4.8954305,3 6,3 L8,3 Z" fill="#000000" opacity="0.3"></path>
        <path d="M11,2 C11,1.44771525 11.4477153,1 12,1 C12.5522847,1 13,1.44771525 13,2 L14.5,2 C14.7761424,2 15,2.22385763 15,2.5 L15,3.5 C15,3.77614237 14.7761424,4 14.5,4 L9.5,4 C9.22385763,4 9,3.77614237 9,3.5 L9,2.5 C9,2.22385763 9.22385763,2 9.5,2 L11,2 Z" fill="#000000"></path>
        <rect fill="#000000" opacity="0.3" x="7" y="10" width="5" height="2" rx="1"></rect>
        <rect fill="#000000" opacity="0.3" x="7" y="14" width="9" height="2" rx="1"></rect>
    </g>
</svg>
